X: 24
T: No_122_A_Song_of_Prophecy.krn
N: Derived from No_122_A_Song_of_Prophecy.krn
%%abc-version 2.0
%%abcx-abcm2ps-target-version 5.9.1 (29 Sep 2008)
%%abc-creator hum2abc beta
%%abcx-conversion-date 2019/03/15 08:36:13
%%humdrum-veritas 2304308780
%%humdrum-veritas-data 1621383508
%%linebreak <none>
%%barnumbers 0
L: 1/8
M: 3/4
K: C clef=bass
[K:clef=bass][M:3/4]z4(3CDD ]|:  
EE-E3z | 
(3FEE E3/C/ (3EDC | 
CC-C3z | 
(3DDE E/D/D/C/ C z ||  
[M:2/4]E3/F/ (3EDC ||  
[M:3/4]C2A, z C3/D/ | 
(3EDD C z (3DDD | 
CC-C3z | 
(3DCC C3/C/ (3CCA, ||  
CC-C2 | 
D z (3CDD :|]  



